;FLAVOR:Marlin
M73 P0
M117 Time Left 2h31m32s
;TIME:9092
;Filament used: 6.88947m
;Layer height: 0.12
;MINX:76.232
;MINY:75.61
;MINZ:0.12
;MAXX:158.499
;MAXY:156.499
;MAXZ:18.96
;POSTPROCESSED
;Generated with Cura_SteamEngine 5.2.1
M140 S50
M105
M190 S50
M104 S200
M105
M109 S200
M82 ;absolute extrusion mode
; Ender 3 Custom Start G-code
G92 E0 ; Reset Extruder
G28 ; Home all axes
G1 Z2.0 F3000 ; Move Z Axis up little to prevent scratching of Heat Bed
G1 X0.1 Y20 Z0.3 F5000.0 ; Move to start position
G1 X0.1 Y200.0 Z0.3 F1500.0 E15 ; Draw the first line
G1 X0.4 Y200.0 Z0.3 F5000.0 ; Move to side a little
G1 X0.4 Y20 Z0.3 F1500.0 E30 ; Draw the second line
G92 E0 ; Reset Extruder
G1 Z2.0 F3000 ; Move Z Axis up little to prevent scratching of Heat Bed
G1 X5 Y20 Z0.3 F5000.0 ; Move over to prevent blob squish
G92 E0
G92 E0
G1 F2700 E-5
;LAYER_COUNT:158
;LAYER:0
M107
G0 F6000 X80.553 Y79.511 Z0.12
;TYPE:SKIRT
G1 F2700 E0
G1 F1200 X81.251 Y78.907 E0.01842
G1 X81.7 Y78.55 E0.02987
G1 X82.158 Y78.202 E0.04135
G1 X82.934 Y77.676 E0.06006
G1 X83.753 Y77.217 E0.07879
G1 X84.427 Y76.904 E0.09362
G1 X85.14 Y76.602 E0.10907
G1 X86.018 Y76.273 E0.12778
G1 X86.921 Y76.021 E0.14649
G1 X87.799 Y75.853 E0.16433
G1 X88.346 Y75.771 E0.17537
G1 X89.014 Y75.688 E0.1888
G1 X89.891 Y75.624 E0.20635
G1 X90.495 Y75.61 E0.21841
G1 X143.701 Y75.611 E1.28019
G1 X144.409 Y75.622 E1.29432
G1 X145.32 Y75.674 E1.31253
G1 X146.059 Y75.758 E1.32737
G1 X146.538 Y75.827 E1.33703
G1 X147.46 Y76.001 E1.35576
G1 X148.364 Y76.252 E1.37448
G1 X149.086 Y76.514 E1.38981
G1 X149.827 Y76.813 E1.40575
G1 X150.681 Y77.201 E1.42447
G1 X151.499 Y77.66 E1.44319
G1 X152.343 Y78.238 E1.4636
G1 X152.949 Y78.696 E1.47876
G1 X153.673 Y79.293 E1.49749
G1 X154.343 Y79.95 E1.51622
G1 X154.983 Y80.697 E1.53585
G1 X155.474 Y81.325 E1.55175
G1 X156.019 Y82.088 E1.57047
G1 X156.498 Y82.894 E1.58918
G1 X156.893 Y83.707 E1.60721
G1 X157.096 Y84.173 E1.61736
G1 X157.32 Y84.721 E1.62917
G1 X157.631 Y85.606 E1.64789
G1 X157.865 Y86.514 E1.6666
G1 X157.984 Y87.167 E1.67985
G1 X158.067 Y87.718 E1.69097
G1 X158.141 Y88.291 E1.7025
G1 X158.216 Y89.265 E1.72199
G1 X158.229 Y89.866 E1.73399
G1 X158.228 Y109.067 E2.11717
G1 X158.218 Y109.77 E2.1312
G1 X158.135 Y112.684 E2.18937
G1 X158.135 Y115.202 E2.23962
G1 X158.207 Y117.758 E2.29065
G1 X158.349 Y120.257 E2.3406
G1 X158.457 Y121.644 E2.36837
G1 X158.485 Y122.157 E2.37862
G1 X158.498 Y122.755 E2.39055
G1 X158.499 Y141.953 E2.77367
G1 X158.489 Y142.651 E2.7876
G1 X158.444 Y143.503 E2.80463
G1 X158.357 Y144.283 E2.82029
G1 X158.279 Y144.823 E2.83118
G1 X158.105 Y145.744 E2.84988
G1 X157.854 Y146.648 E2.86861
G1 X157.628 Y147.279 E2.88198
G1 X157.432 Y147.777 E2.89266
G1 X157.203 Y148.321 E2.90444
G1 X156.795 Y149.166 E2.92317
G1 X156.317 Y149.973 E2.94188
G1 X155.884 Y150.59 E2.95693
G1 X155.402 Y151.229 E2.9729
G1 X154.806 Y151.953 E2.99161
G1 X154.15 Y152.624 E3.01034
G1 X153.449 Y153.228 E3.02881
G1 X153.074 Y153.525 E3.03835
G1 X152.581 Y153.898 E3.05069
G1 X151.806 Y154.425 E3.06939
G1 X150.988 Y154.884 E3.08811
G1 X150.337 Y155.187 E3.10244
G1 X149.613 Y155.496 E3.11815
G1 X148.735 Y155.827 E3.13687
G1 X147.833 Y156.082 E3.15558
G1 X146.942 Y156.255 E3.17369
G1 X146.407 Y156.336 E3.18449
G1 X145.716 Y156.422 E3.19839
G1 X144.845 Y156.484 E3.21581
G1 X144.243 Y156.498 E3.22783
G1 X91.047 Y156.499 E4.28941
G1 X90.35 Y156.489 E4.30332
G1 X89.512 Y156.445 E4.32007
G1 X88.676 Y156.351 E4.33686
G1 X88.136 Y156.271 E4.34775
G1 X87.215 Y156.094 E4.36647
G1 X86.312 Y155.84 E4.38519
G1 X85.741 Y155.634 E4.3973
G1 X85.245 Y155.44 E4.40793
G1 X84.671 Y155.2 E4.42035
G1 X83.827 Y154.792 E4.43905
G1 X83.02 Y154.313 E4.45778
G1 X82.403 Y153.879 E4.47284
G1 X81.766 Y153.398 E4.48876
G1 X81.043 Y152.802 E4.50746
G1 X80.372 Y152.146 E4.52619
G1 X79.773 Y151.451 E4.5445
G1 X79.468 Y151.066 E4.5543
G1 X79.095 Y150.572 E4.56665
G1 X78.569 Y149.796 E4.58536
G1 X78.111 Y148.978 E4.60407
G1 X77.809 Y148.329 E4.61836
G1 X77.501 Y147.606 E4.63404
G1 X77.171 Y146.728 E4.65276
G1 X76.916 Y145.826 E4.67146
G1 X76.744 Y144.933 E4.68961
G1 X76.663 Y144.395 E4.70047
G1 X76.58 Y143.729 E4.71386
G1 X76.516 Y142.845 E4.73155
G1 X76.502 Y142.244 E4.74355
G1 X76.501 Y123.044 E5.1267
G1 X76.511 Y122.36 E5.14035
G1 X76.595 Y119.444 E5.19857
G1 X76.595 Y116.926 E5.24882
G1 X76.524 Y114.402 E5.29921
G1 X76.379 Y111.827 E5.35068
G1 X76.289 Y110.704 E5.37316
G1 X76.243 Y109.838 E5.39047
G1 X76.232 Y109.35 E5.40021
G1 X76.232 Y90.137 E5.78362
G1 X76.243 Y89.427 E5.79779
G1 X76.297 Y88.494 E5.81644
G1 X76.38 Y87.778 E5.83083
G1 X76.451 Y87.286 E5.84075
G1 X76.624 Y86.364 E5.85947
G1 X76.875 Y85.461 E5.87817
G1 X77.108 Y84.813 E5.89192
G1 X77.295 Y84.34 E5.90207
G1 X77.523 Y83.799 E5.91378
G1 X77.929 Y82.954 E5.93249
G1 X78.406 Y82.146 E5.95121
G1 X78.838 Y81.528 E5.96626
G1 X79.304 Y80.908 E5.98174
G1 X79.899 Y80.183 E6.00046
G1 X80.553 Y79.511 E6.01917
G0 F6000 X80.852 Y79.779
G1 F1200 X81.5 Y79.22 E6.03625
G1 X81.949 Y78.863 E6.04769
G1 X82.397 Y78.523 E6.05892
G1 X83.159 Y78.007 E6.07728
G1 X83.963 Y77.559 E6.09565
G1 X84.583 Y77.272 E6.10928
G1 X85.296 Y76.97 E6.12474
G1 X86.158 Y76.649 E6.14309
G1 X87.046 Y76.403 E6.16148
G1 X87.859 Y76.248 E6.178
G1 X88.406 Y76.166 E6.18904
G1 X89.059 Y76.085 E6.20217
G1 X89.904 Y76.024 E6.21907
G1 X90.495 Y76.01 E6.23087
G1 X143.695 Y76.011 E7.29254
G1 X144.403 Y76.022 E7.30667
G1 X145.28 Y76.072 E7.3242
G1 X146.002 Y76.154 E7.3387
G1 X146.481 Y76.223 E7.34835
G1 X147.386 Y76.394 E7.36673
G1 X148.272 Y76.643 E7.3851
G1 X148.936 Y76.885 E7.3992
G1 X149.677 Y77.184 E7.41515
G1 X150.515 Y77.565 E7.43352
G1 X151.317 Y78.018 E7.4519
G1 X152.102 Y78.558 E7.47092
G1 X152.708 Y79.016 E7.48607
G1 X153.418 Y79.602 E7.50445
G1 X154.074 Y80.248 E7.52282
G1 X154.668 Y80.943 E7.54106
G1 X155.159 Y81.571 E7.55697
G1 X155.694 Y82.32 E7.57534
G1 X156.162 Y83.113 E7.59372
G1 X156.526 Y83.867 E7.61042
G1 X156.729 Y84.333 E7.62057
G1 X156.949 Y84.869 E7.63213
G1 X157.253 Y85.738 E7.6505
G1 X157.481 Y86.63 E7.66888
G1 X157.589 Y87.227 E7.68098
G1 X157.672 Y87.778 E7.6921
G1 X157.744 Y88.339 E7.70339
G1 X157.816 Y89.278 E7.72218
G1 X157.829 Y89.866 E7.73392
G1 X157.828 Y109.062 E8.117
G1 X157.815 Y109.918 E8.13408
G1 X157.735 Y112.708 E8.18978
G1 X157.735 Y115.213 E8.23977
G1 X157.807 Y117.758 E8.29058
G1 X157.952 Y120.309 E8.34157
G1 X158.058 Y121.675 E8.36891
G1 X158.085 Y122.169 E8.37879
G1 X158.098 Y122.755 E8.39048
G1 X158.1 Y141.794 E8.77043
G1 X158.089 Y142.645 E8.78741
G1 X158.045 Y143.466 E8.80382
G1 X157.961 Y144.225 E8.81906
G1 X157.883 Y144.765 E8.82995
G1 X157.712 Y145.67 E8.84833
G1 X157.463 Y146.556 E8.86669
G1 X157.256 Y147.132 E8.87891
G1 X157.06 Y147.63 E8.88959
G1 X156.836 Y148.163 E8.90112
G1 X156.435 Y148.992 E8.9195
G1 X155.963 Y149.783 E8.93788
G1 X155.564 Y150.349 E8.9517
G1 X155.082 Y150.988 E8.96768
G1 X154.497 Y151.699 E8.98605
G1 X153.851 Y152.355 E9.00442
G1 X153.201 Y152.915 E9.02155
G1 X152.826 Y153.212 E9.03109
G1 X152.343 Y153.577 E9.04317
G1 X151.581 Y154.094 E9.06155
G1 X150.777 Y154.542 E9.07992
G1 X150.18 Y154.819 E9.09305
G1 X149.456 Y155.128 E9.10876
G1 X148.594 Y155.452 E9.12714
G1 X147.708 Y155.701 E9.1455
G1 X146.882 Y155.86 E9.16229
G1 X146.347 Y155.941 E9.17309
G1 X145.671 Y156.024 E9.18668
G1 X144.832 Y156.085 E9.20347
G1 X144.243 Y156.098 E9.21522
G1 X91.205 Y156.1 E10.27365
G1 X90.356 Y156.089 E10.2906
G1 X89.548 Y156.046 E10.30675
G1 X88.735 Y155.956 E10.32307
G1 X88.195 Y155.876 E10.33396
G1 X87.291 Y155.701 E10.35234
G1 X86.405 Y155.449 E10.37072
G1 X85.887 Y155.262 E10.38171
G1 X85.391 Y155.068 E10.39234
G1 X84.83 Y154.832 E10.40448
G1 X84.001 Y154.431 E10.42286
G1 X83.211 Y153.959 E10.44123
G1 X82.644 Y153.56 E10.45506
G1 X82.007 Y153.079 E10.47099
G1 X81.297 Y152.493 E10.48936
G1 X80.641 Y151.848 E10.50772
G1 X80.086 Y151.202 E10.52472
G1 X79.781 Y150.817 E10.53452
G1 X79.416 Y150.334 E10.5466
G1 X78.9 Y149.571 E10.56498
G1 X78.452 Y148.767 E10.58335
G1 X78.177 Y148.172 E10.59643
G1 X77.869 Y147.449 E10.61211
G1 X77.545 Y146.588 E10.63047
G1 X77.298 Y145.701 E10.64885
G1 X77.139 Y144.873 E10.66567
G1 X77.058 Y144.335 E10.67653
G1 X76.977 Y143.684 E10.68962
G1 X76.915 Y142.832 E10.70667
G1 X76.902 Y142.244 E10.71841
G1 X76.901 Y123.05 E11.10144
G1 X76.914 Y122.214 E11.11813
G1 X76.995 Y119.422 E11.17387
G1 X76.995 Y116.915 E11.2239
G1 X76.924 Y114.369 E11.27473
G1 X76.782 Y111.854 E11.325
G1 X76.687 Y110.672 E11.34866
G1 X76.642 Y109.82 E11.36569
G1 X76.632 Y109.35 E11.37507
G1 X76.632 Y90.143 E11.75837
G1 X76.643 Y89.433 E11.77254
G1 X76.695 Y88.534 E11.79051
G1 X76.776 Y87.835 E11.80455
G1 X76.847 Y87.343 E11.81447
G1 X77.018 Y86.438 E11.83285
G1 X77.266 Y85.552 E11.85121
G1 X77.48 Y84.96 E11.86377
G1 X77.667 Y84.487 E11.87392
G1 X77.89 Y83.957 E11.8854
G1 X78.29 Y83.127 E11.90378
G1 X78.76 Y82.336 E11.92214
G1 X79.158 Y81.768 E11.93599
G1 X79.624 Y81.148 E11.95146
G1 X80.208 Y80.437 E11.96983
G1 X80.852 Y79.779 E11.9882
G0 F6000 X81.151 Y80.048
G1 F1200 X81.749 Y79.533 E12.00395
G1 X82.198 Y79.176 E12.0154
G1 X82.635 Y78.844 E12.02635
G1 X83.384 Y78.339 E12.04437
G1 X84.173 Y77.901 E12.06238
G1 X84.739 Y77.641 E12.07481
G1 X85.452 Y77.339 E12.09027
G1 X86.298 Y77.024 E12.10828
G1 X87.169 Y76.785 E12.12631
G1 X87.918 Y76.644 E12.14151
G1 X88.465 Y76.562 E12.15255
G1 X89.104 Y76.483 E12.1654
G1 X89.917 Y76.423 E12.18167
G1 X90.495 Y76.41 E12.19321
G1 X143.688 Y76.411 E13.25473
G1 X144.396 Y76.422 E13.26886
G1 X145.241 Y76.47 E13.28575
G1 X145.945 Y76.55 E13.29989
G1 X146.424 Y76.619 E13.30955
G1 X147.312 Y76.787 E13.32758
G1 X148.181 Y77.033 E13.34561
G1 X148.787 Y77.256 E13.35849
G1 X149.528 Y77.555 E13.37444
G1 X150.349 Y77.93 E13.39245
G1 X151.135 Y78.376 E13.41049
G1 X151.861 Y78.877 E13.42809
G1 X152.467 Y79.335 E13.44325
G1 X153.163 Y79.91 E13.46126
G1 X153.805 Y80.546 E13.4793
G1 X154.353 Y81.189 E13.49616
G1 X154.844 Y81.817 E13.51207
G1 X155.368 Y82.553 E13.5301
G1 X155.825 Y83.332 E13.54812
G1 X156.159 Y84.026 E13.56349
G1 X156.362 Y84.492 E13.57363
G1 X156.577 Y85.018 E13.58497
G1 X156.875 Y85.87 E13.60299
G1 X157.097 Y86.746 E13.62102
G1 X157.193 Y87.287 E13.63199
G1 X157.276 Y87.838 E13.64311
G1 X157.347 Y88.387 E13.65415
G1 X157.416 Y89.291 E13.67225
G1 X157.429 Y89.866 E13.68372
G1 X157.428 Y109.056 E14.06668
G1 X157.415 Y109.906 E14.08364
G1 X157.335 Y112.696 E14.13935
G1 X157.335 Y115.224 E14.18979
G1 X157.407 Y117.758 E14.24038
G1 X157.554 Y120.362 E14.29243
G1 X157.659 Y121.706 E14.31933
G1 X157.685 Y122.182 E14.32885
G1 X157.698 Y122.755 E14.34029
G1 X157.7 Y141.794 E14.72023
G1 X157.689 Y142.639 E14.73709
G1 X157.647 Y143.429 E14.75288
G1 X157.565 Y144.168 E14.76772
G1 X157.487 Y144.708 E14.77861
G1 X157.319 Y145.595 E14.79662
G1 X157.072 Y146.464 E14.81465
G1 X156.883 Y146.986 E14.82573
G1 X156.687 Y147.484 E14.83641
G1 X156.468 Y148.005 E14.84769
G1 X156.074 Y148.817 E14.8657
G1 X155.61 Y149.592 E14.88373
G1 X155.245 Y150.108 E14.89634
G1 X154.763 Y150.747 E14.91231
G1 X154.188 Y151.444 E14.93034
G1 X153.553 Y152.086 E14.94836
G1 X152.953 Y152.601 E14.96414
G1 X152.578 Y152.898 E14.97369
G1 X152.104 Y153.256 E14.98554
G1 X151.356 Y153.762 E15.00357
G1 X150.566 Y154.2 E15.02159
G1 X150.023 Y154.451 E15.03353
G1 X149.299 Y154.76 E15.04924
G1 X148.453 Y155.078 E15.06727
G1 X147.583 Y155.319 E15.08529
G1 X146.822 Y155.464 E15.10075
G1 X146.287 Y155.545 E15.11155
G1 X145.627 Y155.627 E15.12482
G1 X144.82 Y155.685 E15.14097
G1 X144.243 Y155.698 E15.15248
G1 X91.205 Y155.7 E16.21092
G1 X90.362 Y155.689 E16.22774
G1 X89.585 Y155.648 E16.24327
G1 X88.793 Y155.56 E16.25917
G1 X88.253 Y155.48 E16.27006
G1 X87.367 Y155.308 E16.28807
G1 X86.499 Y155.059 E16.30609
G1 X86.033 Y154.889 E16.31599
G1 X85.537 Y154.695 E16.32662
G1 X84.988 Y154.465 E16.3385
G1 X84.176 Y154.071 E16.35651
G1 X83.402 Y153.606 E16.37453
G1 X82.885 Y153.241 E16.38716
G1 X82.248 Y152.76 E16.40309
G1 X81.553 Y152.184 E16.4211
G1 X80.91 Y151.55 E16.43912
G1 X80.4 Y150.954 E16.45478
G1 X80.095 Y150.569 E16.46458
G1 X79.737 Y150.096 E16.47642
G1 X79.232 Y149.347 E16.49444
G1 X78.795 Y148.557 E16.51246
G1 X78.545 Y148.016 E16.52435
G1 X78.237 Y147.293 E16.54004
G1 X77.92 Y146.447 E16.55807
G1 X77.679 Y145.576 E16.5761
G1 X77.535 Y144.814 E16.59158
G1 X77.454 Y144.276 E16.60243
G1 X77.375 Y143.639 E16.61524
G1 X77.315 Y142.82 E16.63163
G1 X77.302 Y142.244 E16.64313
G1 X77.3 Y123.206 E17.02305
G1 X77.314 Y122.225 E17.04263
G1 X77.395 Y119.433 E17.09837
G1 X77.395 Y116.904 E17.14884
G1 X77.324 Y114.37 E17.19943
G1 X77.18 Y111.801 E17.25078
G1 X77.086 Y110.64 E17.27402
G1 X77.042 Y109.802 E17.29077
G1 X77.032 Y109.35 E17.29979
G1 X77.032 Y90.149 E17.68297
G1 X77.043 Y89.439 E17.69714
G1 X77.093 Y88.574 E17.71443
G1 X77.172 Y87.892 E17.72813
G1 X77.243 Y87.4 E17.73805
G1 X77.411 Y86.513 E17.75607
G1 X77.657 Y85.644 E17.77409
G1 X77.852 Y85.107 E17.78549
G1 X78.039 Y84.634 E17.79564
G1 X78.258 Y84.114 E17.8069
G1 X78.65 Y83.301 E17.82491
G1 X79.113 Y82.526 E17.84293
G1 X79.477 Y82.009 E17.85555
G1 X79.943 Y81.389 E17.87102
G1 X80.517 Y80.691 E17.88906
G1 X81.151 Y80.048 E17.90708
G1 F2700 E12.90708
G0 F6000 X90.111 Y89.51
G1 F2700 E17.90708
G1 F1200 X90.254 Y89.456 E17.91013
G1 X90.376 Y89.554 E17.91325
G1 X90.386 Y89.611 E17.91441
G1 X90.308 Y89.743 E17.91747
G1 X90.204 Y89.761 E17.91957
G1 X90.11 Y89.707 E17.92174
G1 X90.075 Y89.611 E17.92378
G1 X90.111 Y89.51 E17.92592
G0 F6000 X89.8 Y89.249
G1 F1200 X89.95 Y89.123 E17.92982
G1 X90.135 Y89.056 E17.93375
G1 X90.325 Y89.056 E17.93754
G1 X90.513 Y89.125 E17.94154
G1 X90.662 Y89.25 E17.94542
G1 X90.757 Y89.414 E17.9492
G1 X90.792 Y89.609 E17.95316
G1 X90.758 Y89.8 E17.95703
G1 X90.661 Y89.968 E17.9609
G1 X90.51 Y90.094 E17.96482
G1 X90.327 Y90.161 E17.96871
G1 X90.134 Y90.161 E17.97256
G1 X89.951 Y90.094 E17.97645
G1 X89.8 Y89.968 E17.98038
G1 X89.703 Y89.8 E17.98425
G1 X89.669 Y89.609 E17.98812
G1 X89.703 Y89.416 E17.99203
G1 X89.8 Y89.249 E17.99589
G0 F6000 X89.488 Y88.988
G1 F1200 X89.746 Y88.772 E18.0026
G1 X90.064 Y88.656 E18.00936
G1 X90.396 Y88.656 E18.01598
G1 X90.717 Y88.773 E18.0228
G1 X90.973 Y88.988 E18.02947
G1 X91.139 Y89.276 E18.0361
G1 X91.198 Y89.609 E18.04285
G1 X91.14 Y89.94 E18.04956
G1 X90.972 Y90.23 E18.05625
G1 X90.714 Y90.446 E18.06296
G1 X90.398 Y90.561 E18.06967
G1 X90.063 Y90.561 E18.07636
G1 X89.747 Y90.446 E18.08307
G1 X89.489 Y90.23 E18.08978
G1 X89.321 Y89.94 E18.09647
G1 X89.263 Y89.609 E18.10318
G1 X89.322 Y89.276 E18.10993
G1 X89.488 Y88.988 E18.11656
G1 F2700 E13.11656
G0 F6000 X90.064 Y108.656
G1 F2700 E18.11656
G1 F1200 X90.396 Y108.656 E18.12319
G1 X90.717 Y108.773 E18.13
G1 X90.973 Y108.988 E18.13668
G1 X91.139 Y109.276 E18.14331
G1 X91.198 Y109.609 E18.15006
G1 X91.14 Y109.94 E18.15676
G1 X90.972 Y110.23 E18.16345
G1 X90.714 Y110.446 E18.17017
G1 X90.398 Y110.561 E18.17688
G1 X90.063 Y110.561 E18.18356
G1 X89.747 Y110.446 E18.19027
G1 X89.489 Y110.23 E18.19699
M73 P1
G1 X89.321 Y109.94 E18.20368
G1 X89.263 Y109.609 E18.21038
G1 X89.322 Y109.276 E18.21713
G1 X89.488 Y108.988 E18.22377
G1 X89.746 Y108.772 E18.23048
G1 X90.064 Y108.656 E18.23724
G0 F6000 X90.135 Y109.056
G1 F1200 X90.325 Y109.056 E18.24103
G1 X90.513 Y109.125 E18.24502
G1 X90.662 Y109.25 E18.24891
G1 X90.757 Y109.414 E18.25269
G1 X90.792 Y109.609 E18.25664
G1 X90.758 Y109.8 E18.26051
G1 X90.661 Y109.968 E18.26438
G1 X90.51 Y110.094 E18.26831
G1 X90.327 Y110.161 E18.2722
G1 X90.134 Y110.161 E18.27605
G1 X89.951 Y110.094 E18.27994
G1 X89.8 Y109.968 E18.28386
G1 X89.703 Y109.8 E18.28773
G1 X89.669 Y109.609 E18.29161
